X:155
T:Lark In The Morning, The
R:jig
S:https://thesession.org/tunes/62
M:6/8
L:1/8
Z:Jeremy
K:Cmajor
|:AFA AFA|BGB BdB|AFA AFA|fed BdB|
AFA AFA|BGB BdB|def afe|dBB BdB:|
|:def afe| bff afe|def afe|dBB BdB|
def afe|bff afe|g2e f2d|edB BdB:|
|:dff fef|fef fef|dff fef|edB BdB|
dff fef|fef def|g2e f2d|edB BdB:|
|:Add fdd|edd fdd|Add fdd|edB BdB|
Add fdd|edB def| g2e f2d|edB BdB:|

